Adwaita++/apps/scalable/geogebra.svg

<svg enable-background="new" height="128" viewBox="0 0 128 128" width="128" xmlns="http://www.w3.org/2000/svg">
  <g transform="matrix(2.00279498443 0 0 1.99966163832 -3.531754969 -465.55227159719)">
    <path d="m59.365687 250.00815c-6.670479-11.55361-23.20817-13.98656-36.741408-6.17314-13.533232 7.81342-19.6967746 23.35293-13.0262946 34.90654 6.6704746 11.5536 23.2098626 13.98558 36.7430946 6.17216 13.533238-7.81342 19.695084-23.35196 13.024608-34.90556zm-3.687373 2.12891c5.252245 9.09715.449615 22.20971-11.466145 29.08927-11.915756 6.87957-25.672879 4.48249-30.925124-4.61466-5.2522452-9.09716-.449617-22.20972 11.466139-29.08929 11.91576-6.87957 25.67288-4.48249 30.92513 4.61468z" fill="#060606" opacity=".2"/>
    <path d="m59.365687 249.00798c-6.670479-11.55361-23.20817-13.98656-36.741408-6.17314-13.533232 7.81342-19.6967746 23.35293-13.0262946 34.90654 6.6704746 11.5536 23.2098626 13.98558 36.7430946 6.17216 13.533238-7.81342 19.695084-23.35196 13.024608-34.90556zm-3.687373 2.12891c5.252245 9.09715.449615 22.20971-11.466145 29.08927-11.915756 6.87957-25.672879 4.48249-30.925124-4.61466-5.2522452-9.09716-.449617-22.20972 11.466139-29.08929 11.91576-6.87957 25.67288-4.48249 30.92513 4.61468z" fill="#5a5a5a"/>
    <path d="m64.587891 6.859375c-5.682332 0-11.429682 5.601455-11.429688 11.876953s5.319613 10.277344 11.001953 10.277344 10.716801-3.829951 10.716797-10.105469c-.000008-6.275498-4.60673-12.048828-10.289062-12.048828zm47.833989 18.623047c-5.68234 0-10.28906 4.242828-10.28907 9.476562 0 5.233735 4.89188 11.189454 10.57422 11.189454s10.00391-5.955719 10.00391-11.189454c-.00001-5.233734-4.60673-9.476562-10.28906-9.476562zm-97.539068 23.857422c-5.6823314 0-9.8613208 5.385406-9.8613276 10.61914-.0000052 5.233735 4.6067219 10.189454 10.2890626 10.189454 5.68234 0 11.003912-4.955719 11.003906-10.189454-.000006-5.233734-5.749308-10.61914-11.431641-10.61914zm85.445308 28.113281c-5.682335 0-10.289062 4.667616-10.289058 10.425781-.000004 5.758166 4.606723 11.527344 10.289058 11.527344 5.68234 0 10.28907-5.769178 10.28907-11.527344 0-5.758165-4.60673-10.425781-10.28907-10.425781zm-59.67187 15.380859c-5.682338 0-10.001955 6.385407-10.001953 11.619136-.000002 5.23374 4.462193 10.33204 10.144531 10.33204 5.68234 0 10.431643-5.0983 10.431641-10.33204.000002-5.233729-4.891879-11.619136-10.574219-11.619136z" fill="#99f" stroke-width="2.001228" transform="matrix(.49930223 0 0 .5000846 1.763413 232.81552)"/>
    <path d="m64 3.3457031c-7.550089 0-13.742188 6.1824247-13.742188 13.7207029v.15625l.023438.154297c.739787 4.703231 2.763804 8.173215 5.503906 10.310547 2.740099 2.137332 6.106551 2.896381 9.298828 2.558594 6.38455-.675573 12.430148-5.749795 12.65625-13.117188l.001954-.03125v-.03125c0-7.5382782-6.192099-13.7207029-13.742188-13.7207029zm0 3.9980469c5.35836 0 9.721152 4.348798 9.736328 9.695312-.179088 5.214367-4.505111 8.748741-9.076172 9.232422-2.29071.242389-4.553657-.284318-6.410156-1.732422-1.827421-1.425425-3.339617-3.804716-3.974609-7.615234.078918-5.292007 4.405983-9.580078 9.724609-9.580078zm48.25977 14.316406c-7.55009 0-13.742192 6.182425-13.742192 13.720703 0 7.538277 6.192102 13.722657 13.742192 13.722657 7.55008 0 13.74218-6.18438 13.74218-13.722657 0-7.538278-6.1921-13.720703-13.74218-13.720703zm0 3.998047c5.3677 0 9.73828 4.36335 9.73828 9.722656 0 5.359305-4.37058 9.72461-9.73828 9.72461-5.36771 0-9.73829-4.365305-9.73829-9.72461 0-5.359306 4.37058-9.722656 9.73829-9.722656zm-96.519536 20.421875c-7.5500901 0-13.7421871 6.182427-13.7421871 13.720703 0 7.538277 6.192097 13.720703 13.7421871 13.720703 7.550091 0 13.742188-6.182426 13.742188-13.720703 0-7.538276-6.192097-13.720703-13.742188-13.720703zm0 3.996094c5.367704 0 9.738282 4.365305 9.738282 9.724609 0 5.359305-4.370578 9.722657-9.738282 9.722657-5.367703 0-9.7382809-4.363352-9.7382809-9.722657 0-5.359304 4.3705779-9.724609 9.7382809-9.724609zm84.726566 25.21875c-7.550092 0-13.742191 6.182426-13.742191 13.720703s6.192099 13.720705 13.742191 13.720705c7.55009 0 13.74414-6.182428 13.74414-13.720705s-6.19405-13.720703-13.74414-13.720703zm0 3.998047c5.3677 0 9.74023 4.363352 9.74023 9.722656s-4.37253 9.724609-9.74023 9.724609c-5.367705 0-9.738284-4.365305-9.738284-9.724609s4.370579-9.722656 9.738284-9.722656zm-59.832034 11.263672c-7.550091 0-13.742188 6.182426-13.742188 13.720699 0 7.53828 6.192097 13.72071 13.742188 13.72071 7.550088 0 13.742187-6.18243 13.742187-13.72071 0-7.538273-6.192099-13.720699-13.742187-13.720699zm0 3.998047c5.367702 0 9.738281 4.363351 9.738281 9.722652 0 5.35931-4.370579 9.72461-9.738281 9.72461-5.367704 0-9.738282-4.3653-9.738282-9.72461 0-5.359301 4.370578-9.722653 9.738282-9.722652z" transform="matrix(.49930223 0 0 .50008459711 1.76341279913 232.81552382681)"/>
  </g>
</svg>

<?xml version="1.0" encoding="UTF-8" standalone="no"?>
<svg
   xmlns:dc="http://purl.org/dc/elements/1.1/"
   xmlns:cc="http://creativecommons.org/ns#"
   xmlns:rdf="http://www.w3.org/1999/02/22-rdf-syntax-ns#"
   xmlns:svg="http://www.w3.org/2000/svg"
   xmlns="http://www.w3.org/2000/svg"
   xmlns:xlink="http://www.w3.org/1999/xlink"
   xmlns:sodipodi="http://sodipodi.sourceforge.net/DTD/sodipodi-0.dtd"
   xmlns:inkscape="http://www.inkscape.org/namespaces/inkscape"
   style="enable-background:new"
   width="128"
   height="128"
   version="1.0"
   viewBox="0 0 128 128"
   id="svg79"
   sodipodi:docname="geogebra.svg"
   inkscape:version="0.92.3 (2405546, 2018-03-11)">
  <metadata
     id="metadata83">
    <rdf:RDF>
      <cc:Work
         rdf:about="">
        <dc:format>image/svg+xml</dc:format>
        <dc:type
           rdf:resource="http://purl.org/dc/dcmitype/StillImage" />
      </cc:Work>
    </rdf:RDF>
  </metadata>
  <sodipodi:namedview
     pagecolor="#ffffff"
     bordercolor="#666666"
     borderopacity="1"
     objecttolerance="10"
     gridtolerance="10"
     guidetolerance="10"
     inkscape:pageopacity="0"
     inkscape:pageshadow="2"
     inkscape:window-width="1920"
     inkscape:window-height="1009"
     id="namedview81"
     showgrid="false"
     inkscape:zoom="7.0024647"
     inkscape:cx="38.508975"
     inkscape:cy="72.039857"
     inkscape:window-x="0"
     inkscape:window-y="34"
     inkscape:window-maximized="1"
     inkscape:current-layer="g75" />
  <title
     id="title4162">
  Adwaita Icon Template
 </title>
  <defs
     id="defs22">
    <linearGradient
       id="linearGradient950">
      <stop
         style="stop-color:#9a9996"
         id="stop946"
         offset="0" />
      <stop
         style="stop-color:#77767b"
         id="stop948"
         offset="1" />
    </linearGradient>
    <linearGradient
       id="linearGradient1001"
       x1="1660.857"
       x2="1662.99"
       y1="806.297"
       y2="812.882"
       gradientTransform="matrix(1.8293937,-0.81599442,0.81599442,1.8293937,-3645.9624,100.02949)"
       gradientUnits="userSpaceOnUse"
       xlink:href="#linearGradient950" />
    <clipPath
       id="clipPath5154"
       clipPathUnits="userSpaceOnUse">
      <circle
         cx="128"
         cy="924.362"
         r="109.647"
         style="fill:url(#radialGradient5158)"
         id="circle7" />
    </clipPath>
    <clipPath
       id="clipPath977"
       clipPathUnits="userSpaceOnUse">
      <circle
         cx="128"
         cy="924.362"
         r="109.647"
         style="fill:url(#radialGradient5158)"
         id="circle10" />
    </clipPath>
    <clipPath
       id="clipPath4688"
       clipPathUnits="userSpaceOnUse">
      <path
         d="m 106.42383,889.60156 c -2.2448,-0.0524 -4.09304,1.75264 -4.09375,3.99805 v 32.64453 32.64453 c -4e-5,3.07923 3.33305,5.004 6,3.46485 l 28.26953,-16.32227 28.27148,-16.32227 c 2.66559,-1.54001 2.66559,-5.38772 0,-6.92773 l -28.27148,-16.32227 -28.26953,-16.32226 c -0.58054,-0.3353 -1.23603,-0.51932 -1.90625,-0.53516 z"
         style="fill:url(#radialGradient4692);stroke:#a7003f;stroke-linecap:round;stroke-linejoin:round"
         id="path13" />
    </clipPath>
    <clipPath
       id="clipPath4564"
       clipPathUnits="userSpaceOnUse">
      <circle
         style="fill:url(#radialGradient4568)"
         cx="128"
         cy="924.362"
         r="109.647"
         id="circle16" />
    </clipPath>
    <clipPath
       id="clipPath6215"
       clipPathUnits="userSpaceOnUse">
      <path
         d="m 105.17325,806.18572 c -3.06859,0.56361 -6.11393,1.24721 -9.129005,2.04923 -3.838255,1.06506 -7.62084,2.32142 -11.333578,3.76438 -3.712189,1.44307 -7.34989,3.07087 -10.899472,4.87732 -3.549153,1.80656 -7.005749,3.78947 -10.35684,5.94129 -3.351877,2.15253 -6.593991,4.47137 -9.714191,6.94783 -3.119992,2.47544 -6.114241,5.10535 -8.971529,7.87988 -0.367219,0.38909 -0.731819,0.78065 -1.093777,1.17464 2.60205,17.85956 16.832359,40.03752 30.863064,55.74236 -4.76734,8.84435 -7.265993,18.73329 -7.272057,28.78068 0.02104,2.87431 0.246096,5.7435 0.673482,8.58593 -20.257302,-9.18513 -43.077023,-26.53494 -52.798465,-47.36396 -0.440667,1.15171 -0.863474,2.31018 -1.268271,3.47498 -1.176789,3.80495 -2.162562,7.66637 -2.953625,11.56979 -0.79154,3.90311 -1.3874065,7.84335 -1.7853678,11.80598 -0.39733,3.96334 -0.5961891,7.94407 -0.5958321,11.92728 -4.394e-4,2.81936 0.098928,5.63785 0.2979155,8.45018 0.282275,3.97319 0.763088,7.92978 1.4406374,11.85493 0.625626,3.51826 1.408798,7.00668 2.347153,10.45473 16.778133,6.68355 43.114514,5.45001 63.748015,1.14301 6.818545,11.02763 16.987182,19.58379 29.018153,24.41667 -18.071844,12.93645 -44.490188,24.02095 -67.37308,22.03245 1.384097,1.665 2.813203,3.2921 4.285735,4.8794 2.774977,2.8571 5.691103,5.5737 8.737453,8.1395 3.046107,2.5658 6.218619,4.9777 9.505651,7.2266 3.287242,2.2488 6.684891,4.3319 10.180217,6.2413 3.495379,1.9096 7.084075,3.6433 10.752641,5.1944 3.66896,1.5509 7.413193,2.9174 11.218668,4.0942 1.438565,0.3959 2.884421,0.7648 4.336807,1.1066 14.138748,-11.1844 26.206378,-34.5828 32.780368,-54.56406 12.95816,-0.38251 25.45395,-4.90132 35.65955,-12.89544 2.15922,22.12638 -1.46693,50.5581 -14.64692,69.3832 3.06859,-0.5636 6.11393,-1.2473 9.129,-2.0493 3.83826,-1.0651 7.62084,-2.3214 11.33358,-3.7644 3.71219,-1.4431 7.34989,-3.0709 10.89947,-4.8773 3.54915,-1.8066 7.00575,-3.7895 10.35684,-5.9413 3.35188,-2.1525 6.59399,-4.4714 9.71419,-6.9478 3.11999,-2.4754 6.11424,-5.1054 8.97153,-7.8799 0.36722,-0.3891 0.73182,-0.7806 1.09378,-1.1746 -2.60204,-17.85957 -16.83236,-40.03755 -30.86307,-55.74238 4.76735,-8.84435 7.266,-18.7333 7.27207,-28.78069 -0.021,-2.8743 -0.24611,-5.74349 -0.6735,-8.58592 20.25731,9.18513 43.07704,26.53494 52.79848,47.36396 0.44067,-1.15171 0.86347,-2.31018 1.26827,-3.47499 1.17679,-3.80495 2.16256,-7.66636 2.95362,-11.56978 0.79154,-3.90311 1.38741,-7.84335 1.78537,-11.80598 0.39733,-3.96334 0.59619,-7.94408 0.59583,-11.92729 4.4e-4,-2.81936 -0.0989,-5.63784 -0.29791,-8.45017 -0.28228,-3.97319 -0.76309,-7.92978 -1.44064,-11.85493 -0.62776,-3.53416 -1.41449,-7.03823 -2.35779,-10.50154 -20.56165,-7.32804 -45.89823,-4.79548 -63.74906,-1.11372 -6.81835,-11.01918 -16.98234,-19.56874 -29.00647,-24.39915 18.07184,-12.93645 44.49019,-24.02091 67.37307,-22.03241 -1.38409,-1.66502 -2.8132,-3.2921 -4.28573,-4.87944 -2.77498,-2.85712 -5.6911,-5.57368 -8.73745,-8.13949 -3.04611,-2.56581 -6.21862,-4.97769 -9.50565,-7.22659 -3.28724,-2.24885 -6.68489,-4.3319 -10.18022,-6.24135 -3.49538,-1.90963 -7.08407,-3.64325 -10.75264,-5.19438 -3.66896,-1.55092 -7.41319,-2.91736 -11.21867,-4.09421 -1.42662,-0.39262 -2.86041,-0.75869 -4.30063,-1.09804 -14.14688,11.18369 -26.2293,34.57475 -32.8107,54.55552 -12.96018,0.38127 -25.4582,4.90015 -35.665394,12.89544 -2.15922,-22.12637 1.466931,-50.55807 14.646924,-69.38315 z"
         style="fill:url(#radialGradient6219)"
         id="path19" />
    </clipPath>
  </defs>
  <g
     id="layer1"
     transform="matrix(0.86666673,0,0,0.86666673,9.5333867,-142.40002)">
    <g
       id="layer9">
      <g
         transform="matrix(3.3848044,0,0,3.3819416,-20.257041,-684.25618)"
         id="g75">
        <g
           transform="matrix(0.68273284,0,0,0.68224174,1.5309242,92.073803)"
           id="g73">
          <path
             d="m 59.365687,250.00815 c -6.670479,-11.55361 -23.20817,-13.98656 -36.741408,-6.17314 -13.533232,7.81342 -19.6967746,23.35293 -13.0262946,34.90654 6.6704746,11.5536 23.2098626,13.98558 36.7430946,6.17216 13.533238,-7.81342 19.695084,-23.35196 13.024608,-34.90556 z m -3.687373,2.12891 c 5.252245,9.09715 0.449615,22.20971 -11.466145,29.08927 -11.915756,6.87957 -25.672879,4.48249 -30.925124,-4.61466 -5.2522452,-9.09716 -0.449617,-22.20972 11.466139,-29.08929 11.91576,-6.87957 25.67288,-4.48249 30.92513,4.61468 z"
             id="path931"
             style="fill:#060606;fill-opacity:1;opacity:0.2"
             inkscape:connector-curvature="0" />
          <path
             style="fill:#5a5a5a;fill-opacity:1"
             id="ellipse37"
             d="m 59.365687,249.00798 c -6.670479,-11.55361 -23.20817,-13.98656 -36.741408,-6.17314 -13.533232,7.81342 -19.6967746,23.35293 -13.0262946,34.90654 6.6704746,11.5536 23.2098626,13.98558 36.7430946,6.17216 13.533238,-7.81342 19.695084,-23.35196 13.024608,-34.90556 z m -3.687373,2.12891 c 5.252245,9.09715 0.449615,22.20971 -11.466145,29.08927 -11.915756,6.87957 -25.672879,4.48249 -30.925124,-4.61466 -5.2522452,-9.09716 -0.449617,-22.20972 11.466139,-29.08929 11.91576,-6.87957 25.67288,-4.48249 30.92513,4.61468 z" />
          <g
             id="g905">
            <path
               style="fill:#9999ff;stroke-width:2.00122762"
               d="M 64.587891 6.859375 C 58.905559 6.859375 53.158209 12.46083 53.158203 18.736328 C 53.158197 25.011826 58.477816 29.013672 64.160156 29.013672 C 69.842496 29.013672 74.876957 25.183721 74.876953 18.908203 C 74.876945 12.632705 70.270223 6.859375 64.587891 6.859375 z M 112.42188 25.482422 C 106.73954 25.482422 102.13282 29.72525 102.13281 34.958984 C 102.13281 40.192719 107.02469 46.148438 112.70703 46.148438 C 118.38937 46.148438 122.71094 40.192719 122.71094 34.958984 C 122.71093 29.72525 118.10421 25.482422 112.42188 25.482422 z M 14.882812 49.339844 C 9.2004806 49.339844 5.0214912 54.72525 5.0214844 59.958984 C 5.0214792 65.192719 9.6282063 70.148438 15.310547 70.148438 C 20.992887 70.148438 26.314459 65.192719 26.314453 59.958984 C 26.314447 54.72525 20.565145 49.339844 14.882812 49.339844 z M 100.32812 77.453125 C 94.645785 77.453125 90.039058 82.120741 90.039062 87.878906 C 90.039058 93.637072 94.645785 99.40625 100.32812 99.40625 C 106.01046 99.40625 110.61719 93.637072 110.61719 87.878906 C 110.61719 82.120741 106.01046 77.453125 100.32812 77.453125 z M 40.65625 92.833984 C 34.973912 92.833984 30.654295 99.219391 30.654297 104.45312 C 30.654295 109.68686 35.11649 114.78516 40.798828 114.78516 C 46.481168 114.78516 51.230471 109.68686 51.230469 104.45312 C 51.230471 99.219391 46.33859 92.833984 40.65625 92.833984 z "
               transform="matrix(0.49930223,0,0,0.5000846,1.763413,232.81552)"
               id="path51" />
          </g>
          <g
             transform="matrix(0.21806319,0,0,0.21806319,2.2086251,231.31964)"
             style="fill:#9999ff;stroke:#000000;stroke-width:15.10957909"
             id="g71">
            <path
               style="color:#000000;font-style:normal;font-variant:normal;font-weight:normal;font-stretch:normal;font-size:medium;line-height:normal;font-family:sans-serif;font-variant-ligatures:normal;font-variant-position:normal;font-variant-caps:normal;font-variant-numeric:normal;font-variant-alternates:normal;font-feature-settings:normal;text-indent:0;text-align:start;text-decoration:none;text-decoration-line:none;text-decoration-style:solid;text-decoration-color:#000000;letter-spacing:normal;word-spacing:normal;text-transform:none;writing-mode:lr-tb;direction:ltr;text-orientation:mixed;dominant-baseline:auto;baseline-shift:baseline;text-anchor:start;white-space:normal;shape-padding:0;clip-rule:nonzero;display:inline;overflow:visible;visibility:visible;opacity:1;isolation:auto;mix-blend-mode:normal;color-interpolation:sRGB;color-interpolation-filters:linearRGB;solid-color:#000000;solid-opacity:1;vector-effect:none;fill:#000000;fill-opacity:1;fill-rule:nonzero;stroke:none;stroke-width:4;stroke-linecap:butt;stroke-linejoin:miter;stroke-miterlimit:4;stroke-dasharray:none;stroke-dashoffset:0;stroke-opacity:1;color-rendering:auto;image-rendering:auto;shape-rendering:auto;text-rendering:auto;enable-background:accumulate"
               d="M 64 3.3457031 C 56.449911 3.3457031 50.257812 9.5281278 50.257812 17.066406 L 50.257812 17.222656 L 50.28125 17.376953 C 51.021037 22.080184 53.045054 25.550168 55.785156 27.6875 C 58.525255 29.824832 61.891707 30.583881 65.083984 30.246094 C 71.468534 29.570521 77.514132 24.496299 77.740234 17.128906 L 77.742188 17.097656 L 77.742188 17.066406 C 77.742188 9.5281278 71.550089 3.3457031 64 3.3457031 z M 64 7.34375 C 69.35836 7.34375 73.721152 11.692548 73.736328 17.039062 C 73.55724 22.253429 69.231217 25.787803 64.660156 26.271484 C 62.369446 26.513873 60.106499 25.987166 58.25 24.539062 C 56.422579 23.113637 54.910383 20.734346 54.275391 16.923828 C 54.354309 11.631821 58.681374 7.34375 64 7.34375 z M 112.25977 21.660156 C 104.70968 21.660156 98.517578 27.842581 98.517578 35.380859 C 98.517578 42.919136 104.70968 49.103516 112.25977 49.103516 C 119.80985 49.103516 126.00195 42.919136 126.00195 35.380859 C 126.00195 27.842581 119.80985 21.660156 112.25977 21.660156 z M 112.25977 25.658203 C 117.62747 25.658203 121.99805 30.021553 121.99805 35.380859 C 121.99805 40.740164 117.62747 45.105469 112.25977 45.105469 C 106.89206 45.105469 102.52148 40.740164 102.52148 35.380859 C 102.52148 30.021553 106.89206 25.658203 112.25977 25.658203 z M 15.740234 46.080078 C 8.1901439 46.080078 1.9980469 52.262505 1.9980469 59.800781 C 1.9980469 67.339058 8.1901439 73.521484 15.740234 73.521484 C 23.290325 73.521484 29.482422 67.339058 29.482422 59.800781 C 29.482422 52.262505 23.290325 46.080078 15.740234 46.080078 z M 15.740234 50.076172 C 21.107938 50.076172 25.478516 54.441477 25.478516 59.800781 C 25.478516 65.160086 21.107938 69.523438 15.740234 69.523438 C 10.372531 69.523438 6.0019531 65.160086 6.0019531 59.800781 C 6.0019531 54.441477 10.372531 50.076172 15.740234 50.076172 z M 100.4668 75.294922 C 92.916708 75.294922 86.724609 81.477348 86.724609 89.015625 C 86.724609 96.553902 92.916708 102.73633 100.4668 102.73633 C 108.01689 102.73633 114.21094 96.553902 114.21094 89.015625 C 114.21094 81.477348 108.01689 75.294922 100.4668 75.294922 z M 100.4668 79.292969 C 105.8345 79.292969 110.20703 83.656321 110.20703 89.015625 C 110.20703 94.374929 105.8345 98.740234 100.4668 98.740234 C 95.099095 98.740234 90.728516 94.374929 90.728516 89.015625 C 90.728516 83.656321 95.099095 79.292969 100.4668 79.292969 z M 40.634766 90.556641 C 33.084675 90.556641 26.892578 96.739067 26.892578 104.27734 C 26.892578 111.81562 33.084675 117.99805 40.634766 117.99805 C 48.184854 117.99805 54.376953 111.81562 54.376953 104.27734 C 54.376953 96.739067 48.184854 90.556641 40.634766 90.556641 z M 40.634766 94.554688 C 46.002468 94.554688 50.373047 98.918039 50.373047 104.27734 C 50.373047 109.63665 46.002468 114.00195 40.634766 114.00195 C 35.267062 114.00195 30.896484 109.63665 30.896484 104.27734 C 30.896484 98.918039 35.267062 94.554687 40.634766 94.554688 z "
               transform="matrix(2.2897135,0,0,2.2933013,-2.0416656,6.8598635)"
               id="path61" />
          </g>
        </g>
      </g>
    </g>
  </g>
</svg>
